public/images/timeline/flower.svg

<svg width="18" height="19" viewBox="0 0 18 19" fill="none" xmlns="http://www.w3.org/2000/svg">
<g filter="url(#filter0_f_1239_167)">
<path d="M15.5353 9.87778C15.2389 9.71909 14.9254 9.59241 14.6005 9.5C14.9254 9.40759 15.2389 9.2809 15.5353 9.12222C16.2079 8.7465 16.6988 8.12745 16.9 7.40127C17.1012 6.67509 16.9962 5.90125 16.6082 5.25C16.2202 4.59875 15.5808 4.12342 14.8308 3.92859C14.0808 3.73376 13.2816 3.83539 12.609 4.21111C12.32 4.37976 12.0502 4.57763 11.8043 4.80139C11.8802 4.48378 11.921 4.15928 11.9262 3.83333C11.9262 3.08189 11.6179 2.36122 11.0692 1.82986C10.5204 1.29851 9.77609 1 9 1C8.22392 1 7.47962 1.29851 6.93084 1.82986C6.38207 2.36122 6.07377 3.08189 6.07377 3.83333C6.07896 4.15928 6.11983 4.48378 6.19569 4.80139C5.94977 4.57763 5.68002 4.37976 5.39098 4.21111C4.71837 3.83539 3.91917 3.73376 3.16917 3.92859C2.41918 4.12342 1.77984 4.59875 1.3918 5.25C1.00375 5.90125 0.898797 6.67509 1.10001 7.40127C1.30123 8.12745 1.79214 8.7465 2.46475 9.12222C2.76111 9.2809 3.07458 9.40759 3.39952 9.5C3.07458 9.59241 2.76111 9.71909 2.46475 9.87778C1.79214 10.2535 1.30123 10.8725 1.10001 11.5987C0.898797 12.3249 1.00375 13.0987 1.3918 13.75C1.77984 14.4013 2.41918 14.8766 3.16917 15.0714C3.91917 15.2662 4.71837 15.1646 5.39098 14.7889C5.68002 14.6202 5.94977 14.4224 6.19569 14.1986C6.11983 14.5162 6.07896 14.8407 6.07377 15.1667C6.07377 15.9181 6.38207 16.6388 6.93084 17.1701C7.47962 17.7015 8.22392 18 9 18C9.77609 18 10.5204 17.7015 11.0692 17.1701C11.6179 16.6388 11.9262 15.9181 11.9262 15.1667C11.921 14.8407 11.8802 14.5162 11.8043 14.1986C12.0502 14.4224 12.32 14.6202 12.609 14.7889C13.2816 15.1646 14.0808 15.2662 14.8308 15.0714C15.5808 14.8766 16.2202 14.4013 16.6082 13.75C16.9962 13.0987 17.1012 12.3249 16.9 11.5987C16.6988 10.8725 16.2079 10.2535 15.5353 9.87778V9.87778ZM7.37432 9.5C7.37432 9.18868 7.46966 8.88435 7.64829 8.62549C7.82693 8.36664 8.08082 8.16488 8.37788 8.04574C8.67493 7.92661 9.0018 7.89543 9.31716 7.95617C9.63251 8.01691 9.92218 8.16682 10.1495 8.38696C10.3769 8.6071 10.5317 8.88757 10.5944 9.19291C10.6572 9.49825 10.625 9.81475 10.5019 10.1024C10.3789 10.39 10.1705 10.6358 9.90318 10.8088C9.63584 10.9818 9.32153 11.0741 9 11.0741C8.5695 11.072 8.15724 10.9055 7.85283 10.6108C7.54842 10.316 7.37645 9.91683 7.37432 9.5V9.5ZM13.2593 5.30509C13.6308 5.11691 14.0631 5.075 14.4658 5.18811C14.8685 5.30123 15.2105 5.56063 15.4203 5.91212C15.6301 6.26361 15.6916 6.68001 15.5918 7.07434C15.4921 7.46868 15.2388 7.81044 14.885 8.02824C14.3322 8.33519 13.2512 8.57917 11.8124 8.7287C11.6803 8.27632 11.4345 7.86263 11.0971 7.52454C11.9506 6.3912 12.7066 5.61204 13.2593 5.30509V5.30509ZM9 2.25926C9.4305 2.26133 9.84276 2.42783 10.1472 2.72258C10.4516 3.01733 10.6235 3.4165 10.6257 3.83333C10.6257 4.44722 10.3087 5.47824 9.7153 6.75324C9.24586 6.63797 8.75414 6.63797 8.2847 6.75324C7.69132 5.47824 7.37432 4.44722 7.37432 3.83333C7.37645 3.4165 7.54842 3.01733 7.85283 2.72258C8.15724 2.42783 8.5695 2.26133 9 2.25926V2.25926ZM2.52165 5.87963C2.7375 5.5188 3.0924 5.25564 3.50844 5.14793C3.92448 5.04021 4.36767 5.09673 4.74071 5.30509C5.29344 5.61204 6.04938 6.3912 6.90287 7.52454C6.56548 7.86263 6.31974 8.27632 6.18757 8.7287C4.74884 8.57917 3.66775 8.33519 3.11502 8.02824C2.74236 7.81924 2.47058 7.47561 2.35933 7.07278C2.24808 6.66994 2.30646 6.24083 2.52165 5.87963V5.87963ZM4.74071 13.6949C4.36917 13.8831 3.93691 13.925 3.53421 13.8119C3.13152 13.6988 2.78953 13.4394 2.5797 13.0879C2.36986 12.7364 2.3084 12.32 2.40816 11.9257C2.50791 11.5313 2.76117 11.1896 3.11502 10.9718C3.66775 10.6648 4.74884 10.4208 6.18757 10.2713C6.31974 10.7237 6.56548 11.1374 6.90287 11.4755C6.04938 12.6088 5.29344 13.388 4.74071 13.6949ZM9 16.7407C8.5695 16.7387 8.15724 16.5722 7.85283 16.2774C7.54842 15.9827 7.37645 15.5835 7.37432 15.1667C7.37432 14.5528 7.69132 13.5218 8.2847 12.2468C8.75414 12.362 9.24586 12.362 9.7153 12.2468C10.3087 13.5218 10.6257 14.5528 10.6257 15.1667C10.6235 15.5835 10.4516 15.9827 10.1472 16.2774C9.84276 16.5722 9.4305 16.7387 9 16.7407ZM15.4784 13.1204C15.2625 13.4812 14.9076 13.7444 14.4916 13.8521C14.0755 13.9598 13.6323 13.9033 13.2593 13.6949C12.7066 13.388 11.9506 12.6088 11.0971 11.4755C11.4345 11.1374 11.6803 10.7237 11.8124 10.2713C13.2512 10.4208 14.3322 10.6648 14.885 10.9718C15.2576 11.1808 15.5294 11.5244 15.6407 11.9272C15.7519 12.3301 15.6935 12.7592 15.4784 13.1204V13.1204Z" fill="white"/>
</g>
<path d="M15.5353 9.87778C15.2389 9.71909 14.9254 9.59241 14.6005 9.5C14.9254 9.40759 15.2389 9.2809 15.5353 9.12222C16.2079 8.7465 16.6988 8.12745 16.9 7.40127C17.1012 6.67509 16.9962 5.90125 16.6082 5.25C16.2202 4.59875 15.5808 4.12342 14.8308 3.92859C14.0808 3.73376 13.2816 3.83539 12.609 4.21111C12.32 4.37976 12.0502 4.57763 11.8043 4.80139C11.8802 4.48378 11.921 4.15928 11.9262 3.83333C11.9262 3.08189 11.6179 2.36122 11.0692 1.82986C10.5204 1.29851 9.77609 1 9 1C8.22392 1 7.47962 1.29851 6.93084 1.82986C6.38207 2.36122 6.07377 3.08189 6.07377 3.83333C6.07896 4.15928 6.11983 4.48378 6.19569 4.80139C5.94977 4.57763 5.68002 4.37976 5.39098 4.21111C4.71837 3.83539 3.91917 3.73376 3.16917 3.92859C2.41918 4.12342 1.77984 4.59875 1.3918 5.25C1.00375 5.90125 0.898797 6.67509 1.10001 7.40127C1.30123 8.12745 1.79214 8.7465 2.46475 9.12222C2.76111 9.2809 3.07458 9.40759 3.39952 9.5C3.07458 9.59241 2.76111 9.71909 2.46475 9.87778C1.79214 10.2535 1.30123 10.8725 1.10001 11.5987C0.898797 12.3249 1.00375 13.0987 1.3918 13.75C1.77984 14.4013 2.41918 14.8766 3.16917 15.0714C3.91917 15.2662 4.71837 15.1646 5.39098 14.7889C5.68002 14.6202 5.94977 14.4224 6.19569 14.1986C6.11983 14.5162 6.07896 14.8407 6.07377 15.1667C6.07377 15.9181 6.38207 16.6388 6.93084 17.1701C7.47962 17.7015 8.22392 18 9 18C9.77609 18 10.5204 17.7015 11.0692 17.1701C11.6179 16.6388 11.9262 15.9181 11.9262 15.1667C11.921 14.8407 11.8802 14.5162 11.8043 14.1986C12.0502 14.4224 12.32 14.6202 12.609 14.7889C13.2816 15.1646 14.0808 15.2662 14.8308 15.0714C15.5808 14.8766 16.2202 14.4013 16.6082 13.75C16.9962 13.0987 17.1012 12.3249 16.9 11.5987C16.6988 10.8725 16.2079 10.2535 15.5353 9.87778V9.87778ZM7.37432 9.5C7.37432 9.18868 7.46966 8.88435 7.64829 8.62549C7.82693 8.36664 8.08082 8.16488 8.37788 8.04574C8.67493 7.92661 9.0018 7.89543 9.31716 7.95617C9.63251 8.01691 9.92218 8.16682 10.1495 8.38696C10.3769 8.6071 10.5317 8.88757 10.5944 9.19291C10.6572 9.49825 10.625 9.81475 10.5019 10.1024C10.3789 10.39 10.1705 10.6358 9.90318 10.8088C9.63584 10.9818 9.32153 11.0741 9 11.0741C8.5695 11.072 8.15724 10.9055 7.85283 10.6108C7.54842 10.316 7.37645 9.91683 7.37432 9.5V9.5ZM13.2593 5.30509C13.6308 5.11691 14.0631 5.075 14.4658 5.18811C14.8685 5.30123 15.2105 5.56063 15.4203 5.91212C15.6301 6.26361 15.6916 6.68001 15.5918 7.07434C15.4921 7.46868 15.2388 7.81044 14.885 8.02824C14.3322 8.33519 13.2512 8.57917 11.8124 8.7287C11.6803 8.27632 11.4345 7.86263 11.0971 7.52454C11.9506 6.3912 12.7066 5.61204 13.2593 5.30509V5.30509ZM9 2.25926C9.4305 2.26133 9.84276 2.42783 10.1472 2.72258C10.4516 3.01733 10.6235 3.4165 10.6257 3.83333C10.6257 4.44722 10.3087 5.47824 9.7153 6.75324C9.24586 6.63797 8.75414 6.63797 8.2847 6.75324C7.69132 5.47824 7.37432 4.44722 7.37432 3.83333C7.37645 3.4165 7.54842 3.01733 7.85283 2.72258C8.15724 2.42783 8.5695 2.26133 9 2.25926V2.25926ZM2.52165 5.87963C2.7375 5.5188 3.0924 5.25564 3.50844 5.14793C3.92448 5.04021 4.36767 5.09673 4.74071 5.30509C5.29344 5.61204 6.04938 6.3912 6.90287 7.52454C6.56548 7.86263 6.31974 8.27632 6.18757 8.7287C4.74884 8.57917 3.66775 8.33519 3.11502 8.02824C2.74236 7.81924 2.47058 7.47561 2.35933 7.07278C2.24808 6.66994 2.30646 6.24083 2.52165 5.87963V5.87963ZM4.74071 13.6949C4.36917 13.8831 3.93691 13.925 3.53421 13.8119C3.13152 13.6988 2.78953 13.4394 2.5797 13.0879C2.36986 12.7364 2.3084 12.32 2.40816 11.9257C2.50791 11.5313 2.76117 11.1896 3.11502 10.9718C3.66775 10.6648 4.74884 10.4208 6.18757 10.2713C6.31974 10.7237 6.56548 11.1374 6.90287 11.4755C6.04938 12.6088 5.29344 13.388 4.74071 13.6949ZM9 16.7407C8.5695 16.7387 8.15724 16.5722 7.85283 16.2774C7.54842 15.9827 7.37645 15.5835 7.37432 15.1667C7.37432 14.5528 7.69132 13.5218 8.2847 12.2468C8.75414 12.362 9.24586 12.362 9.7153 12.2468C10.3087 13.5218 10.6257 14.5528 10.6257 15.1667C10.6235 15.5835 10.4516 15.9827 10.1472 16.2774C9.84276 16.5722 9.4305 16.7387 9 16.7407ZM15.4784 13.1204C15.2625 13.4812 14.9076 13.7444 14.4916 13.8521C14.0755 13.9598 13.6323 13.9033 13.2593 13.6949C12.7066 13.388 11.9506 12.6088 11.0971 11.4755C11.4345 11.1374 11.6803 10.7237 11.8124 10.2713C13.2512 10.4208 14.3322 10.6648 14.885 10.9718C15.2576 11.1808 15.5294 11.5244 15.6407 11.9272C15.7519 12.3301 15.6935 12.7592 15.4784 13.1204V13.1204Z" fill="white"/>
<defs>
<filter id="filter0_f_1239_167" x="0" y="0" width="18" height="19" filterUnits="userSpaceOnUse" color-interpolation-filters="sRGB">
<feFlood flood-opacity="0" result="BackgroundImageFix"/>
<feBlend mode="normal" in="SourceGraphic" in2="BackgroundImageFix" result="shape"/>
<feGaussianBlur stdDeviation="0.5" result="effect1_foregroundBlur_1239_167"/>
</filter>
</defs>
</svg>

<svg width="18" height="19" fill="none" xmlns="http://www.w3.org/2000/svg"><g filter="url(#a)"><path d="M15.535 9.878a4.711 4.711 0 0 0-.934-.378c.324-.092.638-.22.934-.378a2.849 2.849 0 0 0 1.365-1.72c.201-.727.096-1.5-.292-2.152a2.917 2.917 0 0 0-1.777-1.321 3.012 3.012 0 0 0-2.222.282 4.76 4.76 0 0 0-.805.59c.076-.317.117-.642.122-.968 0-.751-.308-1.472-.857-2.003A2.976 2.976 0 0 0 9 1c-.776 0-1.52.299-2.07.83a2.789 2.789 0 0 0-.856 2.003c.005.326.046.65.122.968a4.76 4.76 0 0 0-.805-.59 3.012 3.012 0 0 0-2.222-.282c-.75.194-1.39.67-1.777 1.321A2.756 2.756 0 0 0 1.1 7.401a2.849 2.849 0 0 0 1.365 1.721c.296.159.61.286.935.378a4.71 4.71 0 0 0-.935.378 2.849 2.849 0 0 0-1.365 1.72c-.201.727-.096 1.5.292 2.152a2.917 2.917 0 0 0 1.777 1.321c.75.195 1.55.094 2.222-.282a4.76 4.76 0 0 0 .805-.59 4.473 4.473 0 0 0-.122.968c0 .751.308 1.472.857 2.003.549.531 1.293.83 2.069.83s1.52-.299 2.07-.83a2.789 2.789 0 0 0 .856-2.003 4.47 4.47 0 0 0-.122-.968c.246.223.516.421.805.59a3.012 3.012 0 0 0 2.222.282c.75-.194 1.39-.67 1.777-1.321a2.757 2.757 0 0 0 .292-2.151 2.849 2.849 0 0 0-1.365-1.721zM7.375 9.5c0-.311.095-.616.273-.875.179-.258.433-.46.73-.58.297-.118.624-.15.94-.089.315.06.604.21.832.431.227.22.382.5.444.806.063.305.031.622-.092.91a1.586 1.586 0 0 1-.599.706 1.664 1.664 0 0 1-2.05-.198A1.557 1.557 0 0 1 7.374 9.5zm5.884-4.195c.372-.188.804-.23 1.207-.117.402.113.745.373.954.724.21.352.272.768.172 1.162-.1.395-.353.736-.707.954-.553.307-1.634.551-3.073.7a2.828 2.828 0 0 0-.715-1.203c.854-1.134 1.61-1.913 2.162-2.22zM9 2.26c.43.002.843.169 1.147.464.305.294.476.694.479 1.11 0 .614-.317 1.645-.91 2.92a3.002 3.002 0 0 0-1.431 0c-.594-1.275-.91-2.306-.91-2.92.001-.417.173-.816.478-1.11A1.661 1.661 0 0 1 9 2.259zM2.522 5.88c.216-.36.57-.623.986-.731.416-.108.86-.051 1.233.157.552.307 1.308 1.086 2.162 2.22a2.829 2.829 0 0 0-.715 1.204c-1.44-.15-2.52-.394-3.073-.7a1.582 1.582 0 0 1-.756-.956 1.53 1.53 0 0 1 .163-1.193zm2.219 7.816c-.372.188-.804.23-1.207.117a1.618 1.618 0 0 1-.954-.724 1.53 1.53 0 0 1-.172-1.162c.1-.395.353-.736.707-.954.553-.307 1.634-.551 3.073-.7.132.452.377.865.715 1.204-.854 1.133-1.61 1.912-2.162 2.219zM9 16.74a1.66 1.66 0 0 1-1.147-.464 1.557 1.557 0 0 1-.479-1.11c0-.614.317-1.645.91-2.92.47.115.962.115 1.431 0 .594 1.275.91 2.306.91 2.92a1.557 1.557 0 0 1-.478 1.11A1.66 1.66 0 0 1 9 16.741zm6.478-3.62a1.62 1.62 0 0 1-.986.731c-.417.108-.86.051-1.233-.157-.552-.307-1.308-1.086-2.162-2.22.338-.338.583-.751.715-1.204 1.44.15 2.52.394 3.073.7.373.21.644.553.756.956.11.403.053.832-.163 1.193z" fill="#fff"/></g><path d="M15.535 9.878a4.711 4.711 0 0 0-.934-.378c.324-.092.638-.22.934-.378a2.849 2.849 0 0 0 1.365-1.72c.201-.727.096-1.5-.292-2.152a2.917 2.917 0 0 0-1.777-1.321 3.012 3.012 0 0 0-2.222.282 4.76 4.76 0 0 0-.805.59c.076-.317.117-.642.122-.968 0-.751-.308-1.472-.857-2.003A2.976 2.976 0 0 0 9 1c-.776 0-1.52.299-2.07.83a2.789 2.789 0 0 0-.856 2.003c.005.326.046.65.122.968a4.76 4.76 0 0 0-.805-.59 3.012 3.012 0 0 0-2.222-.282c-.75.194-1.39.67-1.777 1.321A2.756 2.756 0 0 0 1.1 7.401a2.849 2.849 0 0 0 1.365 1.721c.296.159.61.286.935.378a4.71 4.71 0 0 0-.935.378 2.849 2.849 0 0 0-1.365 1.72c-.201.727-.096 1.5.292 2.152a2.917 2.917 0 0 0 1.777 1.321c.75.195 1.55.094 2.222-.282a4.76 4.76 0 0 0 .805-.59 4.473 4.473 0 0 0-.122.968c0 .751.308 1.472.857 2.003.549.531 1.293.83 2.069.83s1.52-.299 2.07-.83a2.789 2.789 0 0 0 .856-2.003 4.47 4.47 0 0 0-.122-.968c.246.223.516.421.805.59a3.012 3.012 0 0 0 2.222.282c.75-.194 1.39-.67 1.777-1.321a2.757 2.757 0 0 0 .292-2.151 2.849 2.849 0 0 0-1.365-1.721zM7.375 9.5c0-.311.095-.616.273-.875.179-.258.433-.46.73-.58.297-.118.624-.15.94-.089.315.06.604.21.832.431.227.22.382.5.444.806.063.305.031.622-.092.91a1.586 1.586 0 0 1-.599.706 1.664 1.664 0 0 1-2.05-.198A1.557 1.557 0 0 1 7.374 9.5zm5.884-4.195c.372-.188.804-.23 1.207-.117.402.113.745.373.954.724.21.352.272.768.172 1.162-.1.395-.353.736-.707.954-.553.307-1.634.551-3.073.7a2.828 2.828 0 0 0-.715-1.203c.854-1.134 1.61-1.913 2.162-2.22zM9 2.26c.43.002.843.169 1.147.464.305.294.476.694.479 1.11 0 .614-.317 1.645-.91 2.92a3.002 3.002 0 0 0-1.431 0c-.594-1.275-.91-2.306-.91-2.92.001-.417.173-.816.478-1.11A1.661 1.661 0 0 1 9 2.259zM2.522 5.88c.216-.36.57-.623.986-.731.416-.108.86-.051 1.233.157.552.307 1.308 1.086 2.162 2.22a2.829 2.829 0 0 0-.715 1.204c-1.44-.15-2.52-.394-3.073-.7a1.582 1.582 0 0 1-.756-.956 1.53 1.53 0 0 1 .163-1.193zm2.219 7.816c-.372.188-.804.23-1.207.117a1.618 1.618 0 0 1-.954-.724 1.53 1.53 0 0 1-.172-1.162c.1-.395.353-.736.707-.954.553-.307 1.634-.551 3.073-.7.132.452.377.865.715 1.204-.854 1.133-1.61 1.912-2.162 2.219zM9 16.74a1.66 1.66 0 0 1-1.147-.464 1.557 1.557 0 0 1-.479-1.11c0-.614.317-1.645.91-2.92.47.115.962.115 1.431 0 .594 1.275.91 2.306.91 2.92a1.557 1.557 0 0 1-.478 1.11A1.66 1.66 0 0 1 9 16.741zm6.478-3.62a1.62 1.62 0 0 1-.986.731c-.417.108-.86.051-1.233-.157-.552-.307-1.308-1.086-2.162-2.22.338-.338.583-.751.715-1.204 1.44.15 2.52.394 3.073.7.373.21.644.553.756.956.11.403.053.832-.163 1.193z" fill="#fff"/><defs><filter id="a" x="0" y="0" width="18" height="19" filterUnits="userSpaceOnUse" color-interpolation-filters="sRGB"><feFlood flood-opacity="0" result="BackgroundImageFix"/><feBlend in="SourceGraphic" in2="BackgroundImageFix" result="shape"/><feGaussianBlur stdDeviation=".5" result="effect1_foregroundBlur_1239_167"/></filter></defs></svg>
